packages/assets/static/images/icons/data.svg

<svg width="24" height="24" viewBox="0 0 24 24" xmlns="http://www.w3.org/2000/svg">
<path d="M12.5 2.25C7.45344 2.25 3.5 4.55625 3.5 7.5V16.5C3.5 19.4438 7.45344 21.75 12.5 21.75C17.5466 21.75 21.5 19.4438 21.5 16.5V7.5C21.5 4.55625 17.5466 2.25 12.5 2.25ZM20 12C20 12.9019 19.2612 13.8216 17.9741 14.5238C16.5247 15.3141 14.5803 15.75 12.5 15.75C10.4197 15.75 8.47531 15.3141 7.02594 14.5238C5.73875 13.8216 5 12.9019 5 12V10.44C6.59938 11.8463 9.33406 12.75 12.5 12.75C15.6659 12.75 18.4006 11.8425 20 10.44V12ZM7.02594 4.97625C8.47531 4.18594 10.4197 3.75 12.5 3.75C14.5803 3.75 16.5247 4.18594 17.9741 4.97625C19.2612 5.67844 20 6.59812 20 7.5C20 8.40188 19.2612 9.32156 17.9741 10.0237C16.5247 10.8141 14.5803 11.25 12.5 11.25C10.4197 11.25 8.47531 10.8141 7.02594 10.0237C5.73875 9.32156 5 8.40188 5 7.5C5 6.59812 5.73875 5.67844 7.02594 4.97625ZM17.9741 19.0238C16.5247 19.8141 14.5803 20.25 12.5 20.25C10.4197 20.25 8.47531 19.8141 7.02594 19.0238C5.73875 18.3216 5 17.4019 5 16.5V14.94C6.59938 16.3463 9.33406 17.25 12.5 17.25C15.6659 17.25 18.4006 16.3425 20 14.94V16.5C20 17.4019 19.2612 18.3216 17.9741 19.0238Z"/>
</svg>

<svg viewBox="0 0 24 24" xmlns="http://www.w3.org/2000/svg" aria-hidden="true" fill="currentColor"><path d="M12.5 2.25c-5.047 0-9 2.306-9 5.25v9c0 2.944 3.953 5.25 9 5.25s9-2.306 9-5.25v-9c0-2.944-3.953-5.25-9-5.25M20 12c0 .902-.739 1.822-2.026 2.524-1.45.79-3.394 1.226-5.474 1.226s-4.025-.436-5.474-1.226C5.739 13.822 5 12.902 5 12v-1.56c1.6 1.406 4.334 2.31 7.5 2.31s5.9-.908 7.5-2.31zM7.026 4.976c1.45-.79 3.394-1.226 5.474-1.226s4.025.436 5.474 1.226C19.261 5.678 20 6.598 20 7.5s-.739 1.822-2.026 2.524c-1.45.79-3.394 1.226-5.474 1.226s-4.025-.436-5.474-1.226C5.739 9.322 5 8.402 5 7.5s.739-1.822 2.026-2.524m10.948 14.048c-1.45.79-3.394 1.226-5.474 1.226s-4.025-.436-5.474-1.226C5.739 18.322 5 17.402 5 16.5v-1.56c1.6 1.406 4.334 2.31 7.5 2.31s5.9-.907 7.5-2.31v1.56c0 .902-.739 1.822-2.026 2.524"/></svg>
